X: 31943
T: Pearl O'Shaughnessy's
R: barndance
M: 4/4
K: Fmajor
|:A>B|(3ccc d>c A2 f2|e>df>d B3 f|(3eee d>c (3eee d>c|(3AAA G>F A2 A>B|
(3ccc d>c A2 f2|e>df>d B3 f|e2 d>c =B>cd>e|f2 a2 f2:|
|:A>B|c2 a6|g2 d4 g>f|(3eee d>c (3eee d>c|(3AAA G>F A2 A>B|
c2 a6|g2 d4 g>f|(3eee d>c B>cd>e|f2 a2 f2:|

